X:1
T:Beautiful Swanee River -- Hornpipe
R:hornpipe
C:Harry Carleton
B:Cole's 1000 Fiddle Tunes
M:2/4
L:1/16
K:G
((3uDEF)|vG2GD B,DGA|B2BG DGBd|e2(ef) gedB|edBG AGEF|
vG2GD B,DGA|B2BG DGBd|e2(ef) gedc|BAGF G2:|
|:vdc|BGBd BGBd|cAc"4"e cAce|dBdg agdB|fecA FDdc|
BGBd BGBd|cAc"4"e cAce|dgba gfef|g2{a}gf g2:|
